X: 16771
T: Härjedalsschottis
R: barndance
M: 4/4
K: Edorian
V:1
E>DE>F G2G2|B>Ac>A B2B2|d>ed>c A2A2|A>c e>d G2G2|
E>DE>F G2G2|B>Ac>A B2B2|d>ed>c A2F>D|E2E2E4:|
|:e>fe>c d>ed>B|c>ec>A B2B2|E>DE>F G2G2|B>Ac>A B2B2|
e>fe>c d>ed>B|c>ec>A B2B2|E>DE>F G2F>D|E2E2E4:|
V:2
G2E>D E2E2|E2E>F E2E2|G2G2A2A2|E2E>F E2E2|
E2E>F E2E2|E2E>F E2E2|G2G2A2A2|E2E2E4:|
|:A2A2B2B2|c2c2B2B2|E2E>F E2E2|E2E>F E2E2|
A2A2B2B2|c2c2B2B2|E2E>F E2E2|E2E2E4:|

